X:451
T:Pretty Peggy
N:"Tenderly"
N:Irish title: mair.gread .deas
B:O'Neill's 451
Z:Transcribed by henrik.norbeck@mailbox.swipnet.se
M:3/4
L:1/8
K:D
AF|D2 F2 A2|Bc2 B2 AF|G2 AF DF|E2 D2 de|
f2 ed 3cAG|A2 G2 FD|D2 EF2 G2|A4 3ABc|
d2 dc BA|c2 d2 3cAF|G2 AF DF|E2 D2 FG|
A2 f2 ef|d2 cA FA|GF D2 D2|D4||
